apps/scalable/krusader_user.svg

<svg xmlns="http://www.w3.org/2000/svg" style="isolation:isolate" width="256" height="256" viewBox="0 0 256 256">
 <defs>
  <filter id="hXxp20L4kjj64s2LbgEaHmg2c4jYV46Y" width="400%" height="400%" x="-200%" y="-200%" color-interpolation-filters="sRGB" filterUnits="objectBoundingBox">
   <feGaussianBlur xmlns="http://www.w3.org/2000/svg" in="SourceGraphic" stdDeviation="4.294"/>
   <feOffset xmlns="http://www.w3.org/2000/svg" dx="0" dy="4" result="pf_100_offsetBlur"/>
   <feFlood xmlns="http://www.w3.org/2000/svg" flood-opacity=".4"/>
   <feComposite xmlns="http://www.w3.org/2000/svg" in2="pf_100_offsetBlur" operator="in" result="pf_100_dropShadow"/>
   <feBlend xmlns="http://www.w3.org/2000/svg" in="SourceGraphic" in2="pf_100_dropShadow" mode="normal"/>
  </filter>
 </defs>
 <g filter="url(#hXxp20L4kjj64s2LbgEaHmg2c4jYV46Y)">
  <linearGradient id="_lgradient_8" x1=".25" x2=".75" y1=".036" y2=".902" gradientTransform="matrix(244.648309,0,0,228.338396,5.675856,11.946964)" gradientUnits="userSpaceOnUse">
   <stop offset="0%" style="stop-color:rgb(246,17,17)"/>
   <stop offset="48.272%" style="stop-color:rgb(255,79,79)"/>
   <stop offset="100%" style="stop-color:rgb(255,122,85)"/>
  </linearGradient>
  <path fill="url(#_lgradient_8)" d="M 165.684774 11.946964 C 239.740482 11.946964 250.324165 22.504162 250.324165 96.490822 L 250.324165 155.741617 C 250.324165 229.727874 239.740482 240.28536 165.684774 240.28536 L 90.315249 240.28536 C 16.259545 240.28536 5.675856 229.727874 5.675856 155.741617 L 5.675856 96.490822 C 5.675856 22.504162 16.259545 11.946964 90.315249 11.946964 L 165.684774 11.946964 Z"/>
 </g>
 <g opacity=".1">
  <path fill="#F7F7F7" d="M 183.34903 12.212481 C 241.475759 14.220586 250.324165 28.840822 250.324165 96.490822 L 250.324165 155.741617 C 250.324165 229.727874 239.740482 240.28536 165.684774 240.28536 L 90.315249 240.28536 C 29.219202 240.28536 11.323924 233.099667 6.931661 189.040052 C 11.904514 182.927963 183.818919 15.268295 183.34903 12.212481 Z"/>
 </g>
 <g opacity=".4">
  <linearGradient id="_lgradient_9" x1=".517" x2=".517" y1="0" y2="1">
   <stop offset="0%" style="stop-color:rgb(255,255,255)"/>
   <stop offset="12.5%" stop-opacity=".098" style="stop-color:rgb(255,255,255)"/>
   <stop offset="92.5%" stop-opacity=".098" style="stop-color:rgb(0,0,0)"/>
   <stop offset="100%" stop-opacity=".498" style="stop-color:rgb(0,0,0)"/>
  </linearGradient>
  <path fill="none" stroke="url(#_lgradient_9)" stroke-linecap="round" stroke-linejoin="round" stroke-width="4.077" d="M 165.68477 11.946993 C 239.740477 11.946993 250.324166 22.504193 250.324166 96.490823 L 250.324166 155.741586 C 250.324166 229.727914 239.740477 240.285417 165.68477 240.285417 L 90.315251 240.285417 C 16.259544 240.285417 5.675855 229.727914 5.675855 155.741586 L 5.675855 96.490823 C 5.675855 22.504193 16.259544 11.946993 90.315251 11.946993 L 165.68477 11.946993 Z" vector-effect="non-scaling-stroke"/>
 </g>
 <g filter="url(#bULpad7yTPcL84IXPAGO6HuN4biLXdPH)">
  <path fill="#D5E3DE" d="M 91.697279 61.744601 C 80.347339 61.874856 72.042409 61.487495 65.251448 65.218506 C 61.855913 67.084114 59.160748 70.226256 57.675388 74.166399 C 56.190097 78.106541 55.666817 82.786441 55.666817 88.69358 L 55.666817 126.422211 L 199.999995 126.422211 L 199.999995 103.066365 C 199.999995 97.159226 199.476817 92.479326 197.991466 88.539184 C 197.806666 88.049163 197.559182 87.605033 197.321918 87.153128 C 197.231572 86.987298 197.160977 86.811303 197.075085 86.644354 C 195.517199 83.601364 193.236995 81.124069 190.415215 79.573758 C 183.623698 75.842645 175.319272 76.247997 163.969376 76.117386 L 163.916529 76.117386 L 127.533727 76.117386 L 112.906584 61.744601 L 91.714702 61.744601 L 91.697279 61.744601 Z"/>
  <clipPath id="_clipPath_LQH7RNkoekacxRiJZ5XproIkMDl5WRcR">
   <path fill="#FFFFFF" d="M 91.69726 61.744607 C 80.347351 61.874858 72.042416 61.487691 65.251451 65.2185 C 61.855924 67.084086 59.160737 70.226283 57.67537 74.166404 C 56.190092 78.106532 55.666827 82.786466 55.666827 88.693591 L 55.666827 126.422168 L 199.999985 126.422168 L 199.999985 103.066382 C 199.999985 97.159257 199.476817 92.47933 197.991442 88.539189 C 197.806514 88.049172 197.559176 87.605025 197.321928 87.153148 C 197.231715 86.987143 197.160964 86.811337 197.075265 86.644345 C 195.517365 83.601338 193.237162 81.124099 190.415361 79.573746 C 183.623853 75.842649 175.319455 76.248012 163.969552 76.117399 L 163.916696 76.117399 L 127.533887 76.117399 L 112.906764 61.744607 L 91.714879 61.744607 L 91.69726 61.744607 Z"/>
  </clipPath>
  <g clip-path="url(#_clipPath_LQH7RNkoekacxRiJZ5XproIkMDl5WRcR)">
   <defs>
    <filter id="NVDfr59DvWyfTAeRlHmauKMVTJ5rIR8w" width="400%" height="400%" x="-200%" y="-200%" color-interpolation-filters="sRGB" filterUnits="objectBoundingBox">
     <feGaussianBlur xmlns="http://www.w3.org/2000/svg" stdDeviation="1.44"/>
    </filter>
   </defs>
   <g opacity=".2" filter="url(#NVDfr59DvWyfTAeRlHmauKMVTJ5rIR8w)">
    <path d="M 163.969552 76.117207 C 175.319469 76.247464 183.62439 75.860297 190.415361 79.591106 C 193.810888 81.456692 196.50604 84.598883 197.991415 88.539004 C 199.476693 92.479132 199.999985 97.159065 199.999985 103.06619 L 199.999985 164.150552 C 199.999985 170.057677 199.476776 174.737618 197.991415 178.677752 C 196.50604 182.617873 193.810888 185.777602 190.415361 187.643188 C 183.62439 191.374278 175.319469 190.968922 163.969552 191.099536 L 163.915429 191.099536 L 91.74885 191.099536 L 91.694728 191.099536 C 80.344818 190.968922 72.03989 191.374237 65.248925 187.643188 C 61.853398 185.777602 59.158246 182.617873 57.672879 178.677752 C 56.190037 174.737618 55.666827 170.057677 55.666827 164.150552 L 55.666827 158.760756 L 55.666827 117.438981 C 55.666827 111.531856 56.190037 106.85193 57.675404 102.911795 C 57.860333 102.421771 58.107498 101.977624 58.344746 101.525747 C 58.43496 101.359742 58.505318 101.18395 58.591017 101.016958 C 60.148911 97.973951 62.429106 95.496712 65.250908 93.946359 C 72.042416 90.215262 80.347344 90.620611 91.697254 90.489998 L 91.750117 90.489998 L 113.699582 90.489998 L 128.32676 76.117207 L 163.951961 76.117207 L 163.969552 76.117207 Z"/>
   </g>
  </g>
  <path fill="#F0FCF8" fill-opacity=".996" d="M 163.969568 76.117234 C 175.319476 76.247438 183.6244 75.860128 190.415368 79.591088 C 193.810902 81.456696 196.506038 84.598889 197.991428 88.539031 C 199.476689 92.479123 199.999995 97.159074 199.999995 103.066212 L 199.999995 164.150486 C 199.999995 170.057676 199.476791 174.737627 197.991428 178.677718 C 196.506038 182.617911 193.810902 185.777587 190.415368 187.643245 C 183.6244 191.374257 175.319476 190.968904 163.969568 191.099516 L 163.915355 191.099516 L 91.748793 191.099516 L 91.694574 191.099516 C 80.344672 190.969006 72.039742 191.374359 65.248775 187.643245 C 61.85324 185.777587 59.15811 182.617911 57.672718 178.677718 C 56.18988 174.737627 55.666667 170.057676 55.666667 164.150486 L 55.666667 158.760762 L 55.666667 117.438998 C 55.666667 111.53191 56.18988 106.851959 57.675273 102.911817 C 57.860066 102.421745 58.107352 101.977615 58.344613 101.525761 C 58.434953 101.35988 58.50519 101.183935 58.59078 101.016987 C 60.148659 97.973946 62.42886 95.496702 65.250653 93.946391 C 72.042166 90.215278 80.347097 90.62063 91.696999 90.490019 L 91.749846 90.490019 L 113.6993 90.490019 L 128.326475 76.117234 L 163.951693 76.117234 L 163.969568 76.117234 Z"/>
  <g opacity=".4">
   <path fill="#FFFFFF" d="M 91.697279 61.744601 C 80.347339 61.874856 72.042409 61.487495 65.251448 65.218506 C 61.855913 67.084114 59.160748 70.226256 57.675388 74.166399 C 56.190097 78.106541 55.666817 82.786441 55.666817 88.69358 L 55.666817 90.490171 C 55.666817 84.583033 56.190097 79.903082 57.675388 75.963041 C 59.160748 72.022899 61.855913 68.880706 65.251448 67.015098 C 72.042409 63.28429 80.347339 63.671448 91.697279 63.541193 L 91.714338 63.541193 L 112.906189 63.541193 L 127.015359 77.405153 L 128.32622 76.117386 L 127.533217 76.117386 L 112.906086 61.744601 L 91.714204 61.744601 L 91.697279 61.744601 Z"/>
  </g>
  <path fill="#FFFFFF" d="M 128.326755 76.117386 L 113.699625 90.490171 L 91.750127 90.490171 L 91.697279 90.490171 C 80.347377 90.620732 72.042957 90.215379 65.251448 93.946543 C 62.429654 95.496905 60.14945 97.974149 58.591574 101.017139 C 58.505981 101.184342 58.435077 101.35993 58.344738 101.525914 C 58.107432 101.977819 57.860117 102.421948 57.67519 102.911969 C 56.189832 106.852162 55.666686 111.532012 55.666686 117.439201 L 55.666686 119.235742 C 55.666686 113.328654 56.189832 108.648703 57.675225 104.708612 C 57.860018 104.21854 58.107474 103.77441 58.344738 103.322556 C 58.435077 103.156675 58.50565 102.980731 58.591574 102.813731 C 60.14945 99.770741 62.429654 97.293497 65.251479 95.743186 C 72.042996 92.012022 80.347377 92.417374 91.697279 92.286814 L 91.750127 92.286814 L 113.699625 92.286814 L 128.326755 77.914029 L 163.951948 77.914029 L 163.968994 77.914029 C 175.318902 78.044233 183.623839 77.656872 190.414806 81.387883 C 193.810341 83.253491 196.505541 86.395633 197.990892 90.335826 C 199.476217 94.275969 199.999472 98.955818 199.999472 104.863007 L 199.999472 103.066365 C 199.999472 97.159226 199.476217 92.479326 197.99093 88.539184 C 196.505566 84.599092 193.810367 81.456899 190.414832 79.591292 C 183.623877 75.860483 175.31894 76.247642 163.969032 76.117386 L 163.951973 76.117386 L 128.326755 76.117386 Z"/>
 </g>
 <defs>
  <filter id="bULpad7yTPcL84IXPAGO6HuN4biLXdPH" width="400%" height="400%" x="-200%" y="-200%" color-interpolation-filters="sRGB" filterUnits="objectBoundingBox">
   <feGaussianBlur xmlns="http://www.w3.org/2000/svg" in="SourceGraphic" stdDeviation="4.294"/>
   <feOffset xmlns="http://www.w3.org/2000/svg" dx="0" dy="4" result="pf_100_offsetBlur"/>
   <feFlood xmlns="http://www.w3.org/2000/svg" flood-opacity=".4"/>
   <feComposite xmlns="http://www.w3.org/2000/svg" in2="pf_100_offsetBlur" operator="in" result="pf_100_dropShadow"/>
   <feBlend xmlns="http://www.w3.org/2000/svg" in="SourceGraphic" in2="pf_100_dropShadow" mode="normal"/>
  </filter>
 </defs>
 <defs>
  <filter id="Lo9ODo62SaPmiGtoYWzlu8v26sJW1ijB" width="400%" height="400%" x="-200%" y="-200%" color-interpolation-filters="sRGB" filterUnits="objectBoundingBox">
   <feGaussianBlur xmlns="http://www.w3.org/2000/svg" in="SourceGraphic" stdDeviation="4.294"/>
   <feOffset xmlns="http://www.w3.org/2000/svg" dx="0" dy="4" result="pf_100_offsetBlur"/>
   <feFlood xmlns="http://www.w3.org/2000/svg" flood-opacity=".4"/>
   <feComposite xmlns="http://www.w3.org/2000/svg" in2="pf_100_offsetBlur" operator="in" result="pf_100_dropShadow"/>
   <feBlend xmlns="http://www.w3.org/2000/svg" in="SourceGraphic" in2="pf_100_dropShadow" mode="normal"/>
  </filter>
 </defs>
 <g filter="url(#Lo9ODo62SaPmiGtoYWzlu8v26sJW1ijB)">
  <linearGradient id="_lgradient_10" x1=".738" x2="-.309" y1=".943" y2="-.236" gradientTransform="matrix(58.567398,0,0,93.821629,121.432602,116.178371)" gradientUnits="userSpaceOnUse">
   <stop offset="0%" style="stop-color:rgb(246,22,22)"/>
   <stop offset="100%" style="stop-color:rgb(254,110,98)"/>
  </linearGradient>
  <path fill="url(#_lgradient_10)" d="M 156.499645 209.357164 C 156.17498 209.357164 155.856809 209.357164 155.194493 209.038992 C 154.54841 208.707834 153.902327 208.061751 153.256244 207.415668 L 141.2404 179.488004 L 126.630485 193.123925 C 126.302574 193.766761 125.656491 194.097919 124.67925 194.097919 C 124.348092 194.097919 123.705255 194.097919 123.387084 193.766761 C 122.409843 193.451836 121.432602 192.143437 121.432602 190.851271 L 121.432602 119.425019 C 121.432602 118.132853 122.081932 116.8277 123.387084 116.509529 C 123.705255 116.178371 124.351338 116.178371 124.682496 116.178371 C 125.331826 116.178371 126.30582 116.509529 126.95515 117.152365 L 178.901515 165.852083 C 179.87551 166.83257 180.206668 168.124736 179.87551 169.416902 C 179.544352 170.725301 178.252186 171.371384 176.96002 171.702542 L 156.502892 173.640791 L 169.158325 201.237297 C 169.489483 201.886627 169.489483 202.860621 169.158325 203.837862 C 168.8434 204.487192 168.184331 205.461186 167.535001 205.792344 L 158.126216 210 C 157.476886 209.353917 156.817817 209.353917 156.502892 209.353917 L 156.499645 209.357164 Z"/>
 </g>
</svg>

<svg xmlns="http://www.w3.org/2000/svg" style="isolation:isolate" width="256" height="256"><defs><filter id="a" width="400%" height="400%" x="-200%" y="-200%" color-interpolation-filters="sRGB" filterUnits="objectBoundingBox"><feGaussianBlur xmlns="http://www.w3.org/2000/svg" in="SourceGraphic" stdDeviation="4.294"/><feOffset xmlns="http://www.w3.org/2000/svg" dy="4" result="pf_100_offsetBlur"/><feFlood xmlns="http://www.w3.org/2000/svg" flood-opacity=".4"/><feComposite xmlns="http://www.w3.org/2000/svg" in2="pf_100_offsetBlur" operator="in" result="pf_100_dropShadow"/><feBlend xmlns="http://www.w3.org/2000/svg" in="SourceGraphic" in2="pf_100_dropShadow"/></filter></defs><g filter="url(#a)"><linearGradient id="b" x1=".25" x2=".75" y1=".036" y2=".902" gradientTransform="matrix(244.6483 0 0 228.3384 5.676 11.947)" gradientUnits="userSpaceOnUse"><stop offset="0%" stop-color="#f61111"/><stop offset="48.272%" stop-color="#ff4f4f"/><stop offset="100%" stop-color="#ff7a55"/></linearGradient><path fill="url(#b)" d="M165.685 11.947c74.055 0 84.64 10.557 84.64 84.544v59.25c0 73.987-10.585 84.544-84.64 84.544h-75.37c-74.055 0-84.64-10.557-84.64-84.543V96.49c0-73.987 10.585-84.544 84.64-84.544h75.37z"/></g><path fill="#F7F7F7" d="M183.349 12.212c58.127 2.009 66.975 16.629 66.975 84.279v59.25c0 73.987-10.584 84.544-84.64 84.544H90.316c-61.096 0-78.991-7.185-83.383-51.245 4.973-6.112 176.887-173.772 176.417-176.828z" opacity=".1"/><g opacity=".4"><linearGradient id="c" x1=".517" x2=".517" y2="1"><stop offset="0%" stop-color="#fff"/><stop offset="12.5%" stop-opacity=".098" stop-color="#fff"/><stop offset="92.5%" stop-opacity=".098"/><stop offset="100%" stop-opacity=".498"/></linearGradient><path fill="none" stroke="url(#c)" stroke-linecap="round" stroke-linejoin="round" stroke-width="4.077" d="M165.685 11.947c74.055 0 84.64 10.557 84.64 84.544v59.25c0 73.987-10.585 84.544-84.64 84.544h-75.37c-74.055 0-84.64-10.557-84.64-84.543V96.49c0-73.987 10.585-84.544 84.64-84.544h75.37z" vector-effect="non-scaling-stroke"/></g><g filter="url(#d)"><path fill="#D5E3DE" d="M91.697 61.745c-11.35.13-19.655-.258-26.446 3.474-3.395 1.865-6.09 5.007-7.576 8.947-1.485 3.94-2.008 8.62-2.008 14.528v37.728H200v-23.356c0-5.907-.523-10.587-2.009-14.527-.184-.49-.432-.934-.67-1.386-.09-.166-.16-.342-.246-.509-1.558-3.043-3.838-5.52-6.66-7.07-6.791-3.731-15.096-3.326-26.446-3.457h-36.435l-14.627-14.372h-21.21z"/><clipPath id="e"><path fill="#FFF" d="M91.697 61.745c-11.35.13-19.655-.257-26.446 3.474-3.395 1.865-6.09 5.007-7.576 8.947-1.485 3.94-2.008 8.62-2.008 14.528v37.728H200v-23.356c0-5.907-.523-10.587-2.009-14.527-.184-.49-.432-.934-.67-1.386-.09-.166-.16-.342-.246-.509-1.558-3.043-3.838-5.52-6.66-7.07-6.791-3.731-15.096-3.326-26.445-3.457h-36.436l-14.627-14.372h-21.21z"/></clipPath><g clip-path="url(#e)"><defs><filter id="f" width="400%" height="400%" x="-200%" y="-200%" color-interpolation-filters="sRGB" filterUnits="objectBoundingBox"><feGaussianBlur xmlns="http://www.w3.org/2000/svg" stdDeviation="1.44"/></filter></defs><path d="M163.97 76.117c11.35.13 19.654-.257 26.445 3.474 3.396 1.866 6.091 5.008 7.576 8.948 1.486 3.94 2.009 8.62 2.009 14.527v61.085c0 5.907-.523 10.587-2.009 14.527-1.485 3.94-4.18 7.1-7.576 8.965-6.79 3.731-15.096 3.326-26.445 3.457H91.695c-11.35-.131-19.655.274-26.446-3.457-3.396-1.865-6.09-5.025-7.576-8.965-1.483-3.94-2.006-8.62-2.006-14.527v-46.712c0-5.907.523-10.587 2.008-14.527.185-.49.432-.934.67-1.386.09-.166.16-.342.246-.509 1.558-3.043 3.838-5.52 6.66-7.07 6.791-3.732 15.096-3.326 26.446-3.457H113.7l14.627-14.373h35.643z" opacity=".2" filter="url(#f)"/></g><path fill="#F0FCF8" fill-opacity=".996" d="M163.97 76.117c11.35.13 19.654-.257 26.445 3.474 3.396 1.866 6.091 5.008 7.576 8.948 1.486 3.94 2.009 8.62 2.009 14.527v61.084c0 5.908-.523 10.588-2.009 14.528-1.485 3.94-4.18 7.1-7.576 8.965-6.79 3.731-15.096 3.326-26.445 3.457H91.695c-11.35-.131-19.655.274-26.446-3.457-3.396-1.865-6.09-5.025-7.576-8.965-1.483-3.94-2.006-8.62-2.006-14.528V117.44c0-5.907.523-10.587 2.008-14.527.185-.49.432-.934.67-1.386.09-.166.16-.342.246-.509 1.558-3.043 3.838-5.52 6.66-7.07 6.791-3.732 15.096-3.326 26.446-3.457H113.7l14.626-14.373h35.644z"/><path fill="#FFF" d="M91.697 61.745c-11.35.13-19.655-.258-26.446 3.474-3.395 1.865-6.09 5.007-7.576 8.947-1.485 3.94-2.008 8.62-2.008 14.528v1.796c0-5.907.523-10.587 2.008-14.527 1.486-3.94 4.18-7.082 7.576-8.948 6.791-3.73 15.096-3.344 26.446-3.474h21.209l14.11 13.864 1.31-1.288h-.793l-14.627-14.372H91.697z" opacity=".4"/><path fill="#FFF" d="M128.327 76.117L113.7 90.49H91.697c-11.35.13-19.654-.275-26.446 3.457-2.821 1.55-5.102 4.027-6.66 7.07-.085.167-.156.343-.246.509-.238.452-.485.896-.67 1.386-1.485 3.94-2.008 8.62-2.008 14.527v1.797c0-5.907.523-10.587 2.008-14.527.185-.49.432-.935.67-1.386.09-.166.16-.342.247-.51 1.557-3.042 3.838-5.52 6.66-7.07 6.791-3.731 15.095-3.326 26.445-3.456H113.7l14.627-14.373h35.642c11.35.13 19.655-.257 26.446 3.474 3.395 1.865 6.09 5.008 7.576 8.948 1.485 3.94 2.008 8.62 2.008 14.527v-1.797c0-5.907-.523-10.587-2.008-14.527-1.485-3.94-4.18-7.082-7.576-8.948-6.791-3.73-15.096-3.343-26.446-3.474h-35.642z"/></g><defs><filter id="d" width="400%" height="400%" x="-200%" y="-200%" color-interpolation-filters="sRGB" filterUnits="objectBoundingBox"><feGaussianBlur xmlns="http://www.w3.org/2000/svg" in="SourceGraphic" stdDeviation="4.294"/><feOffset xmlns="http://www.w3.org/2000/svg" dy="4" result="pf_100_offsetBlur"/><feFlood xmlns="http://www.w3.org/2000/svg" flood-opacity=".4"/><feComposite xmlns="http://www.w3.org/2000/svg" in2="pf_100_offsetBlur" operator="in" result="pf_100_dropShadow"/><feBlend xmlns="http://www.w3.org/2000/svg" in="SourceGraphic" in2="pf_100_dropShadow"/></filter></defs><defs><filter id="g" width="400%" height="400%" x="-200%" y="-200%" color-interpolation-filters="sRGB" filterUnits="objectBoundingBox"><feGaussianBlur xmlns="http://www.w3.org/2000/svg" in="SourceGraphic" stdDeviation="4.294"/><feOffset xmlns="http://www.w3.org/2000/svg" dy="4" result="pf_100_offsetBlur"/><feFlood xmlns="http://www.w3.org/2000/svg" flood-opacity=".4"/><feComposite xmlns="http://www.w3.org/2000/svg" in2="pf_100_offsetBlur" operator="in" result="pf_100_dropShadow"/><feBlend xmlns="http://www.w3.org/2000/svg" in="SourceGraphic" in2="pf_100_dropShadow"/></filter></defs><g filter="url(#g)"><linearGradient id="h" x1=".738" x2="-.309" y1=".943" y2="-.236" gradientTransform="matrix(58.5674 0 0 93.82163 121.433 116.178)" gradientUnits="userSpaceOnUse"><stop offset="0%" stop-color="#f61616"/><stop offset="100%" stop-color="#fe6e62"/></linearGradient><path fill="url(#h)" d="M156.5 209.357c-.325 0-.643 0-1.306-.318-.646-.331-1.292-.977-1.938-1.623l-12.016-27.928-14.61 13.636c-.327.643-.974.974-1.95.974-.332 0-.975 0-1.293-.331-.977-.315-1.954-1.624-1.954-2.916v-71.426c0-1.292.649-2.597 1.954-2.915.318-.332.964-.332 1.295-.332.65 0 1.624.332 2.273.974l51.947 48.7c.974.98 1.305 2.273.974 3.565-.332 1.308-1.624 1.954-2.916 2.286l-20.457 1.938 12.655 27.596c.331.65.331 1.624 0 2.6-.315.65-.974 1.624-1.623 1.955L158.126 210c-.65-.646-1.308-.646-1.623-.646l-.003.003z"/></g></svg>
